lib/svgs/team-compass.svg

<?xml version="1.0" encoding="UTF-8" standalone="no"?>
<svg width="20px" height="20px" viewBox="0 0 20 20" version="1.1" xmlns="http://www.w3.org/2000/svg" xmlns:xlink="http://www.w3.org/1999/xlink">
    <defs></defs>
    <g id="Icons" stroke="none" stroke-width="1" fill="none" fill-rule="evenodd">
        <g id="Web" transform="translate(-97.000000, -2392.000000)" fill="#000000">
            <g id="team/team-compass" transform="translate(97.000000, 2392.000000)">
                <path d="M10.5,3 C6.3645,3 3,6.3645 3,10.5 C3,14.6355 6.3645,18 10.5,18 C14.6355,18 18,14.6355 18,10.5 C18,6.3645 14.6355,3 10.5,3 L10.5,3 L10.5,3 M13.822875,7.70475 L11.682375,11.68725 L7.707375,13.8315 C7.362375,14.0175 6.986625,13.641375 7.17225,13.295625 L9.31275,9.313125 L13.288125,7.168875 C13.63275,6.982875 14.008875,7.359375 13.822875,7.70475 L13.822875,7.70475 L13.822875,7.70475 M10.875,16.875 C10.875,17.082 10.707375,17.25 10.5,17.25 C10.292625,17.25 10.125,17.082 10.125,16.875 L10.125,15.75 C10.125,15.543 10.292625,15.375 10.5,15.375 C10.707375,15.375 10.875,15.543 10.875,15.75 L10.875,16.875 L10.875,16.875 L10.875,16.875 M5.25,10.875 L4.125,10.875 C3.917625,10.875 3.75,10.707 3.75,10.5 C3.75,10.293 3.917625,10.125 4.125,10.125 L5.25,10.125 C5.457375,10.125 5.625,10.293 5.625,10.5 C5.625,10.707 5.457375,10.875 5.25,10.875 L5.25,10.875 L5.25,10.875 M10.125,4.125 C10.125,3.918 10.292625,3.75 10.5,3.75 C10.707375,3.75 10.875,3.918 10.875,4.125 L10.875,5.25 C10.875,5.457 10.707375,5.625 10.5,5.625 C10.292625,5.625 10.125,5.457 10.125,5.25 L10.125,4.125 L10.125,4.125 L10.125,4.125 M16.875,10.875 L15.75,10.875 C15.542625,10.875 15.375,10.707 15.375,10.5 C15.375,10.293 15.542625,10.125 15.75,10.125 L16.875,10.125 C17.082375,10.125 17.25,10.293 17.25,10.5 C17.25,10.707 17.082375,10.875 16.875,10.875 L16.875,10.875 L16.875,10.875" id="Shape"></path>
            </g>
        </g>
    </g>
</svg>

<svg xmlns="http://www.w3.org/2000/svg" viewBox="0 0 20 20">
    <path fill="#000" fill-rule="evenodd" d="M10.5 3A7.509 7.509 0 0 0 3 10.5c0 4.136 3.364 7.5 7.5 7.5s7.5-3.364 7.5-7.5S14.636 3 10.5 3m3.323 4.705l-2.14 3.982-3.976 2.145c-.345.185-.72-.19-.535-.536l2.14-3.983 3.976-2.144c.345-.186.72.19.535.536m-2.948 9.17a.375.375 0 1 1-.75 0V15.75a.375.375 0 1 1 .75 0v1.125m-5.625-6H4.125a.375.375 0 1 1 0-.75H5.25a.375.375 0 1 1 0 .75m4.875-6.75a.375.375 0 1 1 .75 0V5.25a.375.375 0 1 1-.75 0V4.125m6.75 6.75H15.75a.375.375 0 1 1 0-.75h1.125a.375.375 0 1 1 0 .75"/>
</svg>
